svgs/magic_companion.svg

<svg width="192" height="192" viewBox="0 0 192 192" fill="none" xmlns="http://www.w3.org/2000/svg">
<path d="M87.1196 105.032C87.1196 105.032 95.3313 98.5765 110.22 98.5765" stroke="black" stroke-width="8" stroke-miterlimit="6" stroke-linecap="round" stroke-linejoin="round"/>
<path d="M91.9383 102.187C91.9383 102.187 88.2254 103.619 88.2254 85.335C88.2254 59.7887 86.1104 105.085 86.1104 105.085" stroke="black" stroke-width="8" stroke-miterlimit="6" stroke-linecap="round" stroke-linejoin="round"/>
<path d="M97.9707 100.035L100.538 66.7787C100.538 66.7787 101.388 98.3663 103.491 98.3663" stroke="black" stroke-width="8" stroke-miterlimit="6" stroke-linecap="round" stroke-linejoin="round"/>
<path d="M129.37 99.7901L126.799 66.7786C126.799 66.7786 125.949 98.3662 123.846 98.3662" stroke="black" stroke-width="8" stroke-miterlimit="6" stroke-linecap="round" stroke-linejoin="round"/>
<path d="M117.637 98.5809C117.637 98.5809 114.747 97.9457 113.761 56.5448C113.761 56.5448 113.191 87.9468 110.237 98.577" stroke="black" stroke-width="8" stroke-miterlimit="6" stroke-linecap="round" stroke-linejoin="round"/>
<path d="M135.545 102.086C135.545 102.086 138.846 103.619 138.846 85.3348C138.846 59.7884 140.961 105.085 140.961 105.085" stroke="black" stroke-width="8" stroke-miterlimit="6" stroke-linecap="round" stroke-linejoin="round"/>
<path d="M86.1096 105.018C86.1096 105.018 113.333 111.372 113.333 151.218C113.333 151.218 110.455 114.788 140.957 105.053" stroke="black" stroke-width="8" stroke-miterlimit="6" stroke-linecap="round" stroke-linejoin="round"/>
<path d="M140.953 105.032C140.953 105.032 132.741 98.5764 117.853 98.5764" stroke="black" stroke-width="8" stroke-miterlimit="6" stroke-linecap="round" stroke-linejoin="round"/>
<path d="M41.004 97.6408C40.6094 55.8115 69.3443 10.2853 116.712 21.8161C137.632 26.9043 150.744 37.1209 150.744 37.1209L145.582 70.4879C130.262 48.7083 126.344 31.1658 110.232 30.4957C110.232 30.4957 76.5474 28.9375 77.2296 97.2819" stroke="black" stroke-width="8" stroke-miterlimit="6" stroke-linecap="round" stroke-linejoin="round"/>
<path d="M41.004 94.3592C40.6094 136.188 69.3443 181.715 116.712 170.184C137.632 165.096 150.744 154.879 150.744 154.879L145.582 121.512C130.262 143.292 126.344 160.834 110.232 161.504C110.232 161.504 76.5474 163.063 77.2296 94.7181" stroke="black" stroke-width="8" stroke-miterlimit="6" stroke-linecap="round" stroke-linejoin="round"/>
</svg>

<svg width="192" height="192" fill="none" xmlns="http://www.w3.org/2000/svg"><path d="M87.12 105.032s8.211-6.456 23.1-6.456" stroke="#000" stroke-width="8" stroke-miterlimit="6" stroke-linecap="round" stroke-linejoin="round"/><path d="M91.938 102.187s-3.713 1.432-3.713-16.852c0-25.546-2.115 19.75-2.115 19.75M97.97 100.035l2.568-33.256s.85 31.587 2.953 31.587M129.37 99.79l-2.571-33.011s-.85 31.587-2.953 31.587M117.637 98.58s-2.89-.634-3.876-42.035c0 0-.57 31.402-3.524 42.032M135.545 102.086s3.301 1.533 3.301-16.751c0-25.547 2.115 19.75 2.115 19.75" stroke="#000" stroke-width="8" stroke-miterlimit="6" stroke-linecap="round" stroke-linejoin="round"/><path d="M86.11 105.018s27.223 6.354 27.223 46.2c0 0-2.878-36.43 27.624-46.165M140.953 105.032s-8.212-6.456-23.1-6.456M41.004 97.64c-.395-41.828 28.34-87.355 75.708-75.824 20.92 5.088 34.032 15.305 34.032 15.305l-5.162 33.367c-15.32-21.78-19.238-39.322-35.35-39.992 0 0-33.685-1.558-33.002 66.786" stroke="#000" stroke-width="8" stroke-miterlimit="6" stroke-linecap="round" stroke-linejoin="round"/><path d="M41.004 94.36c-.395 41.828 28.34 87.355 75.708 75.824 20.92-5.088 34.032-15.305 34.032-15.305l-5.162-33.367c-15.32 21.78-19.238 39.322-35.35 39.992 0 0-33.685 1.559-33.002-66.786" stroke="#000" stroke-width="8" stroke-miterlimit="6" stroke-linecap="round" stroke-linejoin="round"/></svg>
